src/lib/packages/icons/src/assets/line/university.svg

<svg width="24" height="24" viewBox="0 0 24 24" fill="none" xmlns="http://www.w3.org/2000/svg">
<path d="M12 10.7501C13.517 10.7501 14.75 9.51709 14.75 8.00009C14.75 6.48309 13.517 5.25009 12 5.25009C10.483 5.25009 9.25 6.48309 9.25 8.00009C9.25 9.51709 10.483 10.7501 12 10.7501ZM12 6.75009C12.689 6.75009 13.25 7.31109 13.25 8.00009C13.25 8.68909 12.689 9.25009 12 9.25009C11.311 9.25009 10.75 8.68909 10.75 8.00009C10.75 7.31109 11.311 6.75009 12 6.75009ZM22 21.2501H21.75V12.5001C21.75 11.0911 20.909 10.2501 19.5 10.2501H18.75V7.07211L19.5861 7.62606C19.7131 7.71006 19.857 7.75106 19.999 7.75106C20.242 7.75106 20.48 7.63313 20.625 7.41513C20.854 7.07013 20.7599 6.60409 20.4139 6.37509L13.248 1.62802C12.49 1.12302 11.51 1.12204 10.754 1.62704L3.58606 6.37509C3.24006 6.60409 3.146 7.06913 3.375 7.41513C3.604 7.76013 4.06794 7.85506 4.41394 7.62606L5.25 7.07211V10.2501H4.5C3.091 10.2501 2.25 11.0911 2.25 12.5001V21.2501H2C1.586 21.2501 1.25 21.5861 1.25 22.0001C1.25 22.4141 1.586 22.7501 2 22.7501H22C22.414 22.7501 22.75 22.4141 22.75 22.0001C22.75 21.5861 22.414 21.2501 22 21.2501ZM3.75 12.5001C3.75 11.9111 3.911 11.7501 4.5 11.7501H5.25V21.2501H3.75V12.5001ZM6.75 6.07797L11.584 2.87606C11.837 2.70806 12.163 2.70704 12.418 2.87704L17.25 6.07797V21.2501H14.75V19.0001C14.75 17.4831 13.517 16.2501 12 16.2501C10.483 16.2501 9.25 17.4831 9.25 19.0001V21.2501H6.75V6.07797ZM10.75 21.2501V19.0001C10.75 18.3111 11.311 17.7501 12 17.7501C12.689 17.7501 13.25 18.3111 13.25 19.0001V21.2501H10.75ZM18.75 21.2501V11.7501H19.5C20.089 11.7501 20.25 11.9111 20.25 12.5001V21.2501H18.75ZM15 12.7501C15.414 12.7501 15.75 13.0861 15.75 13.5001C15.75 13.9141 15.414 14.2501 15 14.2501C14.586 14.2501 14.25 13.9141 14.25 13.5001C14.25 13.0861 14.586 12.7501 15 12.7501ZM12.75 13.5001C12.75 13.9141 12.414 14.2501 12 14.2501C11.586 14.2501 11.25 13.9141 11.25 13.5001C11.25 13.0861 11.586 12.7501 12 12.7501C12.414 12.7501 12.75 13.0861 12.75 13.5001ZM9 14.2501C8.586 14.2501 8.25 13.9141 8.25 13.5001C8.25 13.0861 8.586 12.7501 9 12.7501C9.414 12.7501 9.75 13.0861 9.75 13.5001C9.75 13.9141 9.414 14.2501 9 14.2501Z" fill="currentColor"/>
</svg>

<svg xmlns="http://www.w3.org/2000/svg" width="24" height="24" fill="none"><path fill="currentColor" d="M12 10.75A2.752 2.752 0 0 0 14.75 8 2.752 2.752 0 0 0 12 5.25 2.752 2.752 0 0 0 9.25 8 2.752 2.752 0 0 0 12 10.75Zm0-4A1.251 1.251 0 1 1 10.75 8c0-.689.561-1.25 1.25-1.25Zm10 14.5h-.25V12.5c0-1.409-.841-2.25-2.25-2.25h-.75V7.072l.836.554a.748.748 0 0 0 1.039-.21.75.75 0 0 0-.211-1.04l-7.166-4.748a2.242 2.242 0 0 0-2.494-.001L3.586 6.375a.75.75 0 1 0 .828 1.251l.836-.554v3.178H4.5c-1.409 0-2.25.841-2.25 2.25v8.75H2a.75.75 0 0 0 0 1.5h20a.75.75 0 0 0 0-1.5ZM3.75 12.5c0-.589.161-.75.75-.75h.75v9.5h-1.5V12.5Zm3-6.422 4.834-3.202a.75.75 0 0 1 .834.001l4.832 3.201V21.25h-2.5V19A2.752 2.752 0 0 0 12 16.25 2.752 2.752 0 0 0 9.25 19v2.25h-2.5V6.078Zm4 15.172V19c0-.689.561-1.25 1.25-1.25s1.25.561 1.25 1.25v2.25h-2.5Zm8 0v-9.5h.75c.589 0 .75.161.75.75v8.75h-1.5ZM15 12.75a.75.75 0 1 1 0 1.5.75.75 0 0 1 0-1.5Zm-2.25.75a.75.75 0 1 1-1.5 0 .75.75 0 0 1 1.5 0ZM9 14.25a.75.75 0 1 1 0-1.5.75.75 0 0 1 0 1.5Z"/></svg>
